static/img/kroki/104724d5e5d07857f52a8a7d4fbdfa12.svg

<?xml version="1.0" encoding="us-ascii" standalone="no"?><svg xmlns="http://www.w3.org/2000/svg" xmlns:xlink="http://www.w3.org/1999/xlink" contentStyleType="text/css" height="846px" preserveAspectRatio="none" style="width:499px;height:846px;" version="1.1" viewBox="0 0 499 846" width="499px" zoomAndPan="magnify"><defs/><g><!--class instance--><g id="elem_instance"><rect codeLine="23" fill="#3D176E" height="152.9766" id="instance" rx="2.5" ry="2.5" style="stroke:#000D19;stroke-width:0.5;" width="263" x="229" y="438.75"/><ellipse cx="316.25" cy="458.6445" fill="#ADD1B2" rx="11" ry="11" style="stroke:#181818;stroke-width:1.0;"/><path d="M319.2188,464.2852 Q318.6406,464.582 318,464.7227 Q317.3594,464.8789 316.6563,464.8789 Q314.1563,464.8789 312.8281,463.2383 Q311.5156,461.582 311.5156,458.457 Q311.5156,455.332 312.8281,453.6758 Q314.1563,452.0195 316.6563,452.0195 Q317.3594,452.0195 318,452.1758 Q318.6563,452.332 319.2188,452.6289 L319.2188,455.3477 Q318.5938,454.7695 318,454.5039 Q317.4063,454.2227 316.7813,454.2227 Q315.4375,454.2227 314.75,455.3008 Q314.0625,456.3633 314.0625,458.457 Q314.0625,460.5508 314.75,461.6289 Q315.4375,462.6914 316.7813,462.6914 Q317.4063,462.6914 318,462.4258 Q318.5938,462.1445 319.2188,461.5664 L319.2188,464.2852 Z " fill="#000000"/><text fill="#D9B8FF" font-family="Helvetica" font-size="17" lengthAdjust="spacing" textLength="70" x="341.75" y="464.5298">instance</text><line style="stroke:#000D19;stroke-width:0.5;" x1="230" x2="491" y1="478.5391" y2="478.5391"/><text fill="#D9B8FF" font-family="sans-serif" font-size="14" font-weight="bold" lengthAdjust="spacing" textLength="119" x="240" y="500.5342">instance_cores</text><text fill="#D9B8FF" font-family="sans-serif" font-size="14" lengthAdjust="spacing" textLength="57" x="359" y="500.5342">: double</text><text fill="#D9B8FF" font-family="sans-serif" font-size="14" font-weight="bold" lengthAdjust="spacing" textLength="138" x="240" y="526.8311">instance_memory</text><text fill="#D9B8FF" font-family="sans-serif" font-size="14" lengthAdjust="spacing" textLength="57" x="378" y="526.8311">: double</text><text fill="#D9B8FF" font-family="sans-serif" font-size="14" font-weight="bold" lengthAdjust="spacing" textLength="123" x="240" y="553.1279">instance_status</text><text fill="#D9B8FF" font-family="sans-serif" font-size="14" lengthAdjust="spacing" textLength="118" x="363" y="553.1279">: instance_status</text><text fill="#D9B8FF" font-family="sans-serif" font-size="14" font-weight="bold" lengthAdjust="spacing" textLength="109" x="240" y="579.4248">instance_type</text><text fill="#D9B8FF" font-family="sans-serif" font-size="14" lengthAdjust="spacing" textLength="48" x="349" y="579.4248">: string</text></g><!--class onprem_instance--><g id="elem_onprem_instance"><rect codeLine="29" fill="#3D176E" height="126.6797" id="onprem_instance" rx="2.5" ry="2.5" style="stroke:#000D19;stroke-width:0.5;" width="195" x="38" y="712.73"/><ellipse cx="57.05" cy="732.6245" fill="#ADD1B2" rx="11" ry="11" style="stroke:#181818;stroke-width:1.0;"/><path d="M60.0188,738.2652 Q59.4406,738.562 58.8,738.7027 Q58.1594,738.8589 57.4563,738.8589 Q54.9563,738.8589 53.6281,737.2183 Q52.3156,735.562 52.3156,732.437 Q52.3156,729.312 53.6281,727.6558 Q54.9563,725.9995 57.4563,725.9995 Q58.1594,725.9995 58.8,726.1558 Q59.4563,726.312 60.0188,726.6089 L60.0188,729.3277 Q59.3938,728.7495 58.8,728.4839 Q58.2063,728.2027 57.5813,728.2027 Q56.2375,728.2027 55.55,729.2808 Q54.8625,730.3433 54.8625,732.437 Q54.8625,734.5308 55.55,735.6089 Q56.2375,736.6714 57.5813,736.6714 Q58.2063,736.6714 58.8,736.4058 Q59.3938,736.1245 60.0188,735.5464 L60.0188,738.2652 Z " fill="#000000"/><text fill="#D9B8FF" font-family="Helvetica" font-size="17" lengthAdjust="spacing" textLength="144" x="76.95" y="738.5098">onprem_instance</text><line style="stroke:#000D19;stroke-width:0.5;" x1="39" x2="232" y1="752.5191" y2="752.5191"/><text fill="#D9B8FF" font-family="sans-serif" font-size="14" font-weight="bold" lengthAdjust="spacing" textLength="125" x="49" y="774.5142">network_device</text><text fill="#D9B8FF" font-family="sans-serif" font-size="14" lengthAdjust="spacing" textLength="48" x="174" y="774.5142">: string</text><text fill="#D9B8FF" font-family="sans-serif" font-size="14" font-weight="bold" lengthAdjust="spacing" textLength="97" x="49" y="800.8111">network_ip4</text><text fill="#D9B8FF" font-family="sans-serif" font-size="14" lengthAdjust="spacing" textLength="48" x="146" y="800.8111">: string</text><text fill="#D9B8FF" font-family="sans-serif" font-size="14" font-weight="bold" lengthAdjust="spacing" textLength="97" x="49" y="827.1079">network_ip6</text><text fill="#D9B8FF" font-family="sans-serif" font-size="14" lengthAdjust="spacing" textLength="48" x="146" y="827.1079">: string</text></g><!--class onprem_resource--><g id="elem_onprem_resource"><rect codeLine="34" fill="#3D176E" height="39.7891" id="onprem_resource" rx="2.5" ry="2.5" style="stroke:#000D19;stroke-width:0.5;" width="187" x="7" y="495.35"/><ellipse cx="22" cy="515.2445" fill="#ADD1B2" rx="11" ry="11" style="stroke:#181818;stroke-width:1.0;"/><path d="M24.9688,520.8852 Q24.3906,521.182 23.75,521.3227 Q23.1094,521.4789 22.4063,521.4789 Q19.9063,521.4789 18.5781,519.8383 Q17.2656,518.182 17.2656,515.057 Q17.2656,511.932 18.5781,510.2758 Q19.9063,508.6195 22.4063,508.6195 Q23.1094,508.6195 23.75,508.7758 Q24.4063,508.932 24.9688,509.2289 L24.9688,511.9477 Q24.3438,511.3695 23.75,511.1039 Q23.1563,510.8227 22.5313,510.8227 Q21.1875,510.8227 20.5,511.9008 Q19.8125,512.9633 19.8125,515.057 Q19.8125,517.1508 20.5,518.2289 Q21.1875,519.2914 22.5313,519.2914 Q23.1563,519.2914 23.75,519.0258 Q24.3438,518.7445 24.9688,518.1664 L24.9688,520.8852 Z " fill="#000000"/><text fill="#D9B8FF" font-family="Helvetica" font-size="17" lengthAdjust="spacing" textLength="145" x="41" y="521.1298">onprem_resource</text></g><!--class resource--><g id="elem_resource"><rect codeLine="37" fill="#3D176E" height="310.7578" id="resource" rx="2.5" ry="2.5" style="stroke:#000D19;stroke-width:0.5;" width="227" x="247" y="7"/><ellipse cx="315.75" cy="26.8945" fill="#ADD1B2" rx="11" ry="11" style="stroke:#181818;stroke-width:1.0;"/><path d="M318.7188,32.5352 Q318.1406,32.832 317.5,32.9727 Q316.8594,33.1289 316.1563,33.1289 Q313.6563,33.1289 312.3281,31.4883 Q311.0156,29.832 311.0156,26.707 Q311.0156,23.582 312.3281,21.9258 Q313.6563,20.2695 316.1563,20.2695 Q316.8594,20.2695 317.5,20.4258 Q318.1563,20.582 318.7188,20.8789 L318.7188,23.5977 Q318.0938,23.0195 317.5,22.7539 Q316.9063,22.4727 316.2813,22.4727 Q314.9375,22.4727 314.25,23.5508 Q313.5625,24.6133 313.5625,26.707 Q313.5625,28.8008 314.25,29.8789 Q314.9375,30.9414 316.2813,30.9414 Q316.9063,30.9414 317.5,30.6758 Q318.0938,30.3945 318.7188,29.8164 L318.7188,32.5352 Z " fill="#000000"/><text fill="#D9B8FF" font-family="Helvetica" font-size="17" lengthAdjust="spacing" textLength="71" x="341.25" y="32.7798">resource</text><line style="stroke:#000D19;stroke-width:0.5;" x1="248" x2="473" y1="46.7891" y2="46.7891"/><text fill="#D9B8FF" font-family="sans-serif" font-size="14" font-weight="bold" lengthAdjust="spacing" textLength="29" x="258" y="68.7842">age</text><text fill="#D9B8FF" font-family="sans-serif" font-size="14" lengthAdjust="spacing" textLength="66" x="287" y="68.7842">: duration</text><text fill="#D9B8FF" font-family="sans-serif" font-size="14" font-weight="bold" lengthAdjust="spacing" textLength="43" x="258" y="95.0811">atime</text><text fill="#D9B8FF" font-family="sans-serif" font-size="14" lengthAdjust="spacing" textLength="70" x="301" y="95.0811">: datetime</text><text fill="#D9B8FF" font-family="sans-serif" font-size="14" font-weight="bold" lengthAdjust="spacing" textLength="43" x="258" y="121.3779">ctime</text><text fill="#D9B8FF" font-family="sans-serif" font-size="14" lengthAdjust="spacing" textLength="70" x="301" y="121.3779">: datetime</text><text fill="#D9B8FF" font-family="sans-serif" font-size="14" font-weight="bold" lengthAdjust="spacing" textLength="14" x="258" y="147.6748">id</text><text fill="#D9B8FF" font-family="sans-serif" font-size="14" lengthAdjust="spacing" textLength="48" x="272" y="147.6748">: string</text><text fill="#D9B8FF" font-family="sans-serif" font-size="14" font-weight="bold" lengthAdjust="spacing" textLength="33" x="258" y="173.9717">kind</text><text fill="#D9B8FF" font-family="sans-serif" font-size="14" lengthAdjust="spacing" textLength="48" x="291" y="173.9717">: string</text><text fill="#D9B8FF" font-family="sans-serif" font-size="14" font-weight="bold" lengthAdjust="spacing" textLength="90" x="258" y="200.2686">last_access</text><text fill="#D9B8FF" font-family="sans-serif" font-size="14" lengthAdjust="spacing" textLength="66" x="348" y="200.2686">: duration</text><text fill="#D9B8FF" font-family="sans-serif" font-size="14" font-weight="bold" lengthAdjust="spacing" textLength="90" x="258" y="226.5654">last_update</text><text fill="#D9B8FF" font-family="sans-serif" font-size="14" lengthAdjust="spacing" textLength="66" x="348" y="226.5654">: duration</text><text fill="#D9B8FF" font-family="sans-serif" font-size="14" font-weight="bold" lengthAdjust="spacing" textLength="48" x="258" y="252.8623">mtime</text><text fill="#D9B8FF" font-family="sans-serif" font-size="14" lengthAdjust="spacing" textLength="70" x="306" y="252.8623">: datetime</text><text fill="#D9B8FF" font-family="sans-serif" font-size="14" font-weight="bold" lengthAdjust="spacing" textLength="43" x="258" y="279.1592">name</text><text fill="#D9B8FF" font-family="sans-serif" font-size="14" lengthAdjust="spacing" textLength="48" x="301" y="279.1592">: string</text><text fill="#D9B8FF" font-family="sans-serif" font-size="14" font-weight="bold" lengthAdjust="spacing" textLength="34" x="258" y="305.4561">tags</text><text fill="#D9B8FF" font-family="sans-serif" font-size="14" lengthAdjust="spacing" textLength="171" x="292" y="305.4561">: dictionary[string, string]</text></g><!--reverse link resource to instance--><g id="link_resource_instance"><path codeLine="49" d="M360.5,336.04 C360.5,377.74 360.5,403.03 360.5,438.31 " fill="none" id="resource-backto-instance" style="stroke:#FFAF37;stroke-width:2.0;"/><polygon fill="none" points="360.5,318.04,354.5,336.04,366.5,336.04,360.5,318.04" style="stroke:#FFAF37;stroke-width:2.0;"/></g><!--reverse link instance to onprem_instance--><g id="link_instance_onprem_instance"><path codeLine="50" d="M282.7026,605.7362 C249.5126,643.9262 221.56,676.07 190.11,712.25 " fill="none" id="instance-backto-onprem_instance" style="stroke:#FFAF37;stroke-width:2.0;"/><polygon fill="none" points="294.51,592.15,278.1738,601.8004,287.2313,609.672,294.51,592.15" style="stroke:#FFAF37;stroke-width:2.0;"/></g><!--reverse link onprem_resource to onprem_instance--><g id="link_onprem_resource_onprem_instance"><path codeLine="51" d="M105.4813,553.1078 C110.4613,589.9478 119.21,654.6 127.04,712.5 " fill="none" id="onprem_resource-backto-onprem_instance" style="stroke:#FFAF37;stroke-width:2.0;"/><polygon fill="none" points="103.07,535.27,99.5354,553.9115,111.4272,552.304,103.07,535.27" style="stroke:#FFAF37;stroke-width:2.0;"/></g><!--SRC=[XPFBRjim44Nt-We2sGanO3SFnqKtgO6YsGH5qrrH66Do91EMI64uYk4-_hsKv2WK9IShIVSUSkuCgPrMAB2i-2XABBT8Bd5xRIeWACKzaJsiRM59N6GPP5VBsFnY3RyBF4A9uYiMpyXQGapys6cvD-YS-11Odq7kSxArKTtsJ62Sjz1mGAqBSEwUcVIsPWp2gDNsBijYCjxquaejbhSumYmff1Cody_LOXKZxvPwi- -UUDA_KIp2eJrQnb7CKOcMUZDbGmGXHus- -6SpVWEbjCd5JQ1zxpAHGHheJpjGzj3G6HGkBECO2IqVAroFkiBLdSgMa_33EJYHpUY4Dex1I1H_aZHz-TX8I-ZIzADGjjuM65h-RbiwJdl-mNMxBf92g4dL8CxVDPCd_qv1hAa8oyqWZq4-MDfl53vh6IvwjNHrVKQ_FL_4DsThQelqLg2bAUHjDLKJiBQcKLYNdGQCpRlNv8IcrI2EFv6Xu6ln1gJqVsbKeNNggjahSig9EWRAuK0Oycv7BPjbGCUVdNTvOdxvLlicF_sTpMRzAINzr3izEeia7jiqzHy0]--></g></svg>

<svg xmlns="http://www.w3.org/2000/svg" width="499" height="846" viewBox="0 0 499 846"><rect width="263" height="152.977" x="229" y="438.75" fill="#3D176E" rx="2.5" ry="2.5" style="stroke:#000d19;stroke-width:.5"/><circle cx="316.25" cy="458.644" r="11" fill="#ADD1B2" style="stroke:#181818;stroke-width:1"/><path d="M319.219 464.285q-.578.297-1.219.438-.64.156-1.344.156-2.5 0-3.828-1.64-1.312-1.657-1.312-4.782t1.312-4.781q1.328-1.656 3.828-1.656.703 0 1.344.156.656.156 1.219.453v2.719q-.625-.579-1.219-.844-.594-.281-1.219-.281-1.344 0-2.031 1.078-.687 1.062-.687 3.156t.687 3.172q.688 1.062 2.031 1.062.625 0 1.219-.265.594-.281 1.219-.86z"/><text x="341.75" y="464.53" fill="#D9B8FF" font-family="Helvetica" font-size="17" textLength="70">instance</text><path d="M230 478.539h261" style="stroke:#000d19;stroke-width:.5"/><text x="240" y="500.534" fill="#D9B8FF" font-family="sans-serif" font-size="14" font-weight="bold" textLength="119">instance_cores</text><text x="359" y="500.534" fill="#D9B8FF" font-family="sans-serif" font-size="14" textLength="57">: double</text><text x="240" y="526.831" fill="#D9B8FF" font-family="sans-serif" font-size="14" font-weight="bold" textLength="138">instance_memory</text><text x="378" y="526.831" fill="#D9B8FF" font-family="sans-serif" font-size="14" textLength="57">: double</text><text x="240" y="553.128" fill="#D9B8FF" font-family="sans-serif" font-size="14" font-weight="bold" textLength="123">instance_status</text><text x="363" y="553.128" fill="#D9B8FF" font-family="sans-serif" font-size="14" textLength="118">: instance_status</text><text x="240" y="579.425" fill="#D9B8FF" font-family="sans-serif" font-size="14" font-weight="bold" textLength="109">instance_type</text><text x="349" y="579.425" fill="#D9B8FF" font-family="sans-serif" font-size="14" textLength="48">: string</text><rect width="195" height="126.68" x="38" y="712.73" fill="#3D176E" rx="2.5" ry="2.5" style="stroke:#000d19;stroke-width:.5"/><circle cx="57.05" cy="732.625" r="11" fill="#ADD1B2" style="stroke:#181818;stroke-width:1"/><path d="M60.019 738.265q-.578.297-1.219.438-.64.156-1.344.156-2.5 0-3.828-1.64-1.312-1.657-1.312-4.782t1.312-4.781Q54.956 726 57.456 726q.703 0 1.344.156.656.156 1.219.453v2.719q-.625-.578-1.219-.844-.594-.281-1.219-.281-1.344 0-2.031 1.078-.687 1.062-.687 3.156t.687 3.172q.688 1.062 2.031 1.062.625 0 1.219-.265.594-.281 1.219-.86z"/><text x="76.95" y="738.51" fill="#D9B8FF" font-family="Helvetica" font-size="17" textLength="144">onprem_instance</text><path d="M39 752.519h193" style="stroke:#000d19;stroke-width:.5"/><text x="49" y="774.514" fill="#D9B8FF" font-family="sans-serif" font-size="14" font-weight="bold" textLength="125">network_device</text><text x="174" y="774.514" fill="#D9B8FF" font-family="sans-serif" font-size="14" textLength="48">: string</text><text x="49" y="800.811" fill="#D9B8FF" font-family="sans-serif" font-size="14" font-weight="bold" textLength="97">network_ip4</text><text x="146" y="800.811" fill="#D9B8FF" font-family="sans-serif" font-size="14" textLength="48">: string</text><text x="49" y="827.108" fill="#D9B8FF" font-family="sans-serif" font-size="14" font-weight="bold" textLength="97">network_ip6</text><text x="146" y="827.108" fill="#D9B8FF" font-family="sans-serif" font-size="14" textLength="48">: string</text><rect width="187" height="39.789" x="7" y="495.35" fill="#3D176E" rx="2.5" ry="2.5" style="stroke:#000d19;stroke-width:.5"/><circle cx="22" cy="515.245" r="11" fill="#ADD1B2" style="stroke:#181818;stroke-width:1"/><path d="M24.969 520.885q-.578.297-1.219.438-.64.156-1.344.156-2.5 0-3.828-1.64-1.312-1.657-1.312-4.782t1.312-4.781q1.328-1.656 3.828-1.656.703 0 1.344.156.656.156 1.219.453v2.719q-.625-.578-1.219-.844-.594-.281-1.219-.281-1.343 0-2.031 1.078-.687 1.062-.687 3.156t.687 3.172q.688 1.062 2.031 1.062.625 0 1.219-.265.594-.281 1.219-.86z"/><text x="41" y="521.13" fill="#D9B8FF" font-family="Helvetica" font-size="17" textLength="145">onprem_resource</text><rect width="227" height="310.758" x="247" y="7" fill="#3D176E" rx="2.5" ry="2.5" style="stroke:#000d19;stroke-width:.5"/><circle cx="315.75" cy="26.895" r="11" fill="#ADD1B2" style="stroke:#181818;stroke-width:1"/><path d="M318.719 32.535q-.578.297-1.219.438-.64.156-1.344.156-2.5 0-3.828-1.64-1.312-1.657-1.312-4.782t1.312-4.781q1.328-1.656 3.828-1.656.703 0 1.344.156.656.156 1.219.453v2.719q-.625-.578-1.219-.844-.594-.281-1.219-.281-1.344 0-2.031 1.078-.687 1.062-.687 3.156t.687 3.172q.688 1.062 2.031 1.062.625 0 1.219-.265.594-.281 1.219-.86z"/><text x="341.25" y="32.78" fill="#D9B8FF" font-family="Helvetica" font-size="17" textLength="71">resource</text><path d="M248 46.789h225" style="stroke:#000d19;stroke-width:.5"/><text x="258" y="68.784" fill="#D9B8FF" font-family="sans-serif" font-size="14" font-weight="bold" textLength="29">age</text><text x="287" y="68.784" fill="#D9B8FF" font-family="sans-serif" font-size="14" textLength="66">: duration</text><text x="258" y="95.081" fill="#D9B8FF" font-family="sans-serif" font-size="14" font-weight="bold" textLength="43">atime</text><text x="301" y="95.081" fill="#D9B8FF" font-family="sans-serif" font-size="14" textLength="70">: datetime</text><text x="258" y="121.378" fill="#D9B8FF" font-family="sans-serif" font-size="14" font-weight="bold" textLength="43">ctime</text><text x="301" y="121.378" fill="#D9B8FF" font-family="sans-serif" font-size="14" textLength="70">: datetime</text><text x="258" y="147.675" fill="#D9B8FF" font-family="sans-serif" font-size="14" font-weight="bold" textLength="14">id</text><text x="272" y="147.675" fill="#D9B8FF" font-family="sans-serif" font-size="14" textLength="48">: string</text><text x="258" y="173.972" fill="#D9B8FF" font-family="sans-serif" font-size="14" font-weight="bold" textLength="33">kind</text><text x="291" y="173.972" fill="#D9B8FF" font-family="sans-serif" font-size="14" textLength="48">: string</text><text x="258" y="200.269" fill="#D9B8FF" font-family="sans-serif" font-size="14" font-weight="bold" textLength="90">last_access</text><text x="348" y="200.269" fill="#D9B8FF" font-family="sans-serif" font-size="14" textLength="66">: duration</text><text x="258" y="226.565" fill="#D9B8FF" font-family="sans-serif" font-size="14" font-weight="bold" textLength="90">last_update</text><text x="348" y="226.565" fill="#D9B8FF" font-family="sans-serif" font-size="14" textLength="66">: duration</text><text x="258" y="252.862" fill="#D9B8FF" font-family="sans-serif" font-size="14" font-weight="bold" textLength="48">mtime</text><text x="306" y="252.862" fill="#D9B8FF" font-family="sans-serif" font-size="14" textLength="70">: datetime</text><text x="258" y="279.159" fill="#D9B8FF" font-family="sans-serif" font-size="14" font-weight="bold" textLength="43">name</text><text x="301" y="279.159" fill="#D9B8FF" font-family="sans-serif" font-size="14" textLength="48">: string</text><text x="258" y="305.456" fill="#D9B8FF" font-family="sans-serif" font-size="14" font-weight="bold" textLength="34">tags</text><text x="292" y="305.456" fill="#D9B8FF" font-family="sans-serif" font-size="14" textLength="171">: dictionary[string, string]</text><path fill="none" d="M360.5 336.04v102.27m0-120.27-6 18h12z" style="stroke:#ffaf37;stroke-width:2"/><g fill="none"><path d="M282.703 605.736c-33.19 38.19-61.143 70.334-92.593 106.514" style="stroke:#ffaf37;stroke-width:2"/><path d="m294.51 592.15-16.336 9.65 9.057 7.872z" style="stroke:#ffaf37;stroke-width:2"/></g><g fill="none"><path d="M105.481 553.108c4.98 36.84 13.729 101.492 21.559 159.392" style="stroke:#ffaf37;stroke-width:2"/><path d="m103.07 535.27-3.535 18.642 11.892-1.608z" style="stroke:#ffaf37;stroke-width:2"/></g></svg>
